src/lib/packages/icons/src/assets/line/play-pause.svg

<svg width="24" height="24" viewBox="0 0 24 24" fill="none" xmlns="http://www.w3.org/2000/svg">
<path d="M4.98999 18.7471C4.49899 18.7471 4.00899 18.6221 3.56799 18.3721C2.69299 17.8731 2.17102 16.9861 2.17102 15.9971V8.00492C2.17102 7.01592 2.69299 6.12792 3.56799 5.62992C4.46199 5.12092 5.56896 5.13007 6.45496 5.65507L13.3831 9.76493C14.1901 10.2439 14.671 11.079 14.671 12.001C14.671 12.923 14.1901 13.7581 13.3831 14.2371L6.45496 18.347C6.00496 18.613 5.49799 18.7471 4.98999 18.7471ZM4.98999 6.75004C4.75799 6.75004 4.52406 6.81114 4.31006 6.93314C3.90406 7.16414 3.67004 7.55492 3.67004 8.00492V15.9971C3.67004 16.4471 3.90306 16.8371 4.31006 17.0691C4.74606 17.3171 5.26096 17.3119 5.68896 17.0569L12.6169 12.9471C12.9689 12.7391 13.171 12.394 13.171 12.001C13.171 11.608 12.9689 11.264 12.6169 11.055L5.68896 6.94511C5.47196 6.81411 5.23099 6.75004 4.98999 6.75004ZM17.671 17.5V6.50004C17.671 6.08604 17.335 5.75004 16.921 5.75004C16.507 5.75004 16.171 6.08604 16.171 6.50004V17.5C16.171 17.914 16.507 18.25 16.921 18.25C17.335 18.25 17.671 17.914 17.671 17.5ZM21.671 17.5V6.50004C21.671 6.08604 21.335 5.75004 20.921 5.75004C20.507 5.75004 20.171 6.08604 20.171 6.50004V17.5C20.171 17.914 20.507 18.25 20.921 18.25C21.335 18.25 21.671 17.914 21.671 17.5Z" fill="currentColor"/>
</svg>

<svg xmlns="http://www.w3.org/2000/svg" width="24" height="24" fill="none"><path fill="currentColor" d="M4.99 18.747a2.88 2.88 0 0 1-1.422-.375 2.712 2.712 0 0 1-1.397-2.375V8.005A2.71 2.71 0 0 1 3.568 5.63a2.88 2.88 0 0 1 2.887.025l6.928 4.11a2.584 2.584 0 0 1 0 4.472l-6.928 4.11c-.45.266-.957.4-1.465.4Zm0-11.997c-.232 0-.466.061-.68.183-.406.231-.64.622-.64 1.072v7.992c0 .45.233.84.64 1.072.436.248.951.243 1.379-.012l6.928-4.11a1.083 1.083 0 0 0 0-1.892l-6.928-4.11a1.348 1.348 0 0 0-.699-.195ZM17.671 17.5v-11a.75.75 0 0 0-1.5 0v11a.75.75 0 0 0 1.5 0Zm4 0v-11a.75.75 0 0 0-1.5 0v11a.75.75 0 0 0 1.5 0Z"/></svg>
